X: 21526
T: Kilcar, The
R: mazurka
M: 3/4
K: Gmajor
|:b>g d2 B2|G>B e2 g2|f>d (3cdc A2|G>B d2- d2|
b>g d2 c2|A>c e2 g2|f>e d2 f2|a2 g2- g4:|
|:b>d g2 e2|f>g a2- a2|f>g e2 f2|g>e d2- d>a|
b>d g2 e2|g>d a2-a>g|f>g e2- e>f|a2 g2 g2:|

